!!!SOCIAL_FUNCTION:	miscellaneous songs
!!!PDT:	1957
!!!OTL: No_2_First_Raingod_Song.krn
!!!LING_GROUP: Keresan
!!!LANG: Tone
!!!REG: Southwest
**kern
*staff1
=1-
*clefF4
*k[f#c#g#d#a#]
*M3/4
8B\L
16F#\L
16F#\JJ
8F#\L
8F#\J
8F#\L
8F#\J
=2!|:
8d#\L
8d#\J
8f#\L
8f#\J
16f#\LL
16f#\J
8d#\J
=3
8f#\L
8f#\J
16f#\LL
16d#\
16d#\
16B\JJ
16F#\LK
8.F#\J
=4
*M2/4
16B\LL
16G#\
16G#\
16G#\JJ
8F#\L
8D#\J
=5
12F#\L
12F#\
12D#\J
8G#\
8r
=6
8G#\L
8G#\J
16F#\LL
16F#\J
8D#\J
=7
8G#\L
8G#\J
16F#\LL
16F#\J
8D#\J
=8
*M3/4
16G#\LK
8G#\
16G#\Jk
16F#\LL
16D#\J
8D#\J
8D#\
8r
=9
8d#\L
8d#\J
16d#\LL
16B\
16G#\
16F#\JJ
8G#\L
8G#\J
=10
8c#\L
8c#\J
16c#\LL
16B\
16G#\
16F#\JJ
8G#\L
8G#\J
=11
16G#\LL
16G#\J
8D#\J
16G#\LL
16G#\J
8F#\J
8D#\
8r
=12
*M2/4
16D#\LK
8D#\
16D#\Jk
8D#\L
8D#\J
==:|!
*-
